branches/1.7/icons/hicolor/scalable/emblems/emblem-pagavcs-added.svg

<?xml version="1.0" encoding="UTF-8" standalone="no"?>
<!-- Created with Inkscape (http://www.inkscape.org/) -->

<svg
   xmlns:dc="http://purl.org/dc/elements/1.1/"
   xmlns:cc="http://creativecommons.org/ns#"
   xmlns:rdf="http://www.w3.org/1999/02/22-rdf-syntax-ns#"
   xmlns:svg="http://www.w3.org/2000/svg"
   xmlns="http://www.w3.org/2000/svg"
   xmlns:sodipodi="http://sodipodi.sourceforge.net/DTD/sodipodi-0.dtd"
   xmlns:inkscape="http://www.inkscape.org/namespaces/inkscape"
   width="162.28815"
   height="162.28815"
   id="svg2183"
   sodipodi:version="0.32"
   inkscape:version="0.48.5 r10040"
   version="1.0"
   sodipodi:docname="emblem-pagavcs-added.svg"
   inkscape:output_extension="org.inkscape.output.svg.inkscape"
   inkscape:export-filename="/home/gg/added.png"
   inkscape:export-xdpi="72"
   inkscape:export-ydpi="72">
  <defs
     id="defs2185">
    <inkscape:perspective
       sodipodi:type="inkscape:persp3d"
       inkscape:vp_x="0 : 128 : 1"
       inkscape:vp_y="0 : 1000 : 0"
       inkscape:vp_z="256 : 128 : 1"
       inkscape:persp3d-origin="128 : 85.333333 : 1"
       id="perspective12" />
    <linearGradient
       id="linearGradient3179">
      <stop
         style="stop-color:#0085ff;stop-opacity:1;"
         offset="0"
         id="stop3181" />
      <stop
         id="stop3189"
         offset="1"
         style="stop-color:#0000b1;stop-opacity:0.95342463;" />
    </linearGradient>
  </defs>
  <sodipodi:namedview
     id="base"
     pagecolor="#ffffff"
     bordercolor="#666666"
     borderopacity="1.0"
     inkscape:pageopacity="0.0"
     inkscape:pageshadow="2"
     inkscape:zoom="2.75"
     inkscape:cx="-8.6644257"
     inkscape:cy="75.086474"
     inkscape:current-layer="layer1"
     showgrid="true"
     inkscape:document-units="px"
     inkscape:grid-bbox="true"
     width="256px"
     height="256px"
     showguides="true"
     inkscape:guide-bbox="true"
     inkscape:window-width="1191"
     inkscape:window-height="848"
     inkscape:window-x="409"
     inkscape:window-y="24"
     inkscape:window-maximized="0"
     fit-margin-top="0"
     fit-margin-left="0"
     fit-margin-right="0"
     fit-margin-bottom="0" />
  <metadata
     id="metadata2188">
    <rdf:RDF>
      <cc:Work
         rdf:about="">
        <dc:format>image/svg+xml</dc:format>
        <dc:type
           rdf:resource="http://purl.org/dc/dcmitype/StillImage" />
        <dc:title />
      </cc:Work>
    </rdf:RDF>
  </metadata>
  <g
     id="layer1"
     inkscape:label="Layer 1"
     inkscape:groupmode="layer"
     transform="translate(1.1440757,-94.855932)">
    <path
       style="fill:#7558d7;fill-opacity:1;fill-rule:evenodd;stroke:#4427a5;stroke-width:4;stroke-linecap:butt;stroke-linejoin:miter;stroke-miterlimit:4;stroke-opacity:1;stroke-dasharray:none"
       d="m 50.841654,96.855932 0,52.762718 -49.9857297,0 0,61.55649 49.9857297,0 0,43.96894 58.316686,0 0,-43.96894 49.98573,0 0,-61.55649 -49.98573,0 0,-52.762718 -58.316686,0 z"
       id="rect2196"
       inkscape:connector-curvature="0" />
  </g>
</svg>

<?xml version="1.0" encoding="UTF-8" standalone="no"?>
<!-- Created with Inkscape (http://www.inkscape.org/) -->

<svg
   xmlns:dc="http://purl.org/dc/elements/1.1/"
   xmlns:cc="http://creativecommons.org/ns#"
   xmlns:rdf="http://www.w3.org/1999/02/22-rdf-syntax-ns#"
   xmlns:svg="http://www.w3.org/2000/svg"
   xmlns="http://www.w3.org/2000/svg"
   xmlns:xlink="http://www.w3.org/1999/xlink"
   xmlns:sodipodi="http://sodipodi.sourceforge.net/DTD/sodipodi-0.dtd"
   xmlns:inkscape="http://www.inkscape.org/namespaces/inkscape"
   width="256"
   height="256"
   id="svg2183"
   sodipodi:version="0.32"
   inkscape:version="0.47 r22583"
   version="1.0"
   sodipodi:docname="emblem-pagavcs-added.svg"
   inkscape:output_extension="org.inkscape.output.svg.inkscape"
   inkscape:export-filename="/home/gg/added.png"
   inkscape:export-xdpi="72"
   inkscape:export-ydpi="72">
  <defs
     id="defs2185">
    <inkscape:perspective
       sodipodi:type="inkscape:persp3d"
       inkscape:vp_x="0 : 128 : 1"
       inkscape:vp_y="0 : 1000 : 0"
       inkscape:vp_z="256 : 128 : 1"
       inkscape:persp3d-origin="128 : 85.333333 : 1"
       id="perspective12" />
    <linearGradient
       id="linearGradient3179">
      <stop
         style="stop-color:#0085ff;stop-opacity:1;"
         offset="0"
         id="stop3181" />
      <stop
         id="stop3189"
         offset="1"
         style="stop-color:#0000b1;stop-opacity:0.95342463;" />
    </linearGradient>
    <radialGradient
       inkscape:collect="always"
       xlink:href="#linearGradient3179"
       id="radialGradient3187"
       cx="47.5"
       cy="211"
       fx="47.5"
       fy="211"
       r="48"
       gradientTransform="matrix(1.6661909,0,0,1.6671553,0.8559243,-175.76975)"
       gradientUnits="userSpaceOnUse" />
  </defs>
  <sodipodi:namedview
     id="base"
     pagecolor="#ffffff"
     bordercolor="#666666"
     borderopacity="1.0"
     inkscape:pageopacity="0.0"
     inkscape:pageshadow="2"
     inkscape:zoom="2.75"
     inkscape:cx="104.91578"
     inkscape:cy="127.13627"
     inkscape:current-layer="layer1"
     showgrid="true"
     inkscape:document-units="px"
     inkscape:grid-bbox="true"
     width="256px"
     height="256px"
     showguides="true"
     inkscape:guide-bbox="true"
     inkscape:window-width="1191"
     inkscape:window-height="994"
     inkscape:window-x="479"
     inkscape:window-y="0"
     inkscape:window-maximized="0" />
  <metadata
     id="metadata2188">
    <rdf:RDF>
      <cc:Work
         rdf:about="">
        <dc:format>image/svg+xml</dc:format>
        <dc:type
           rdf:resource="http://purl.org/dc/dcmitype/StillImage" />
        <dc:title></dc:title>
      </cc:Work>
    </rdf:RDF>
  </metadata>
  <g
     id="layer1"
     inkscape:label="Layer 1"
     inkscape:groupmode="layer">
    <path
       style="fill:url(#radialGradient3187);fill-opacity:1;fill-rule:evenodd;stroke:#00005d;stroke-width:1.7118485px;stroke-linecap:butt;stroke-linejoin:miter;stroke-opacity:0.7982833"
       d="M 50.841654,96.855932 L 50.841654,149.61865 L 0.8559243,149.61865 L 0.8559243,211.17514 L 50.841654,211.17514 L 50.841654,255.14408 L 109.15834,255.14408 L 109.15834,211.17514 L 159.14407,211.17514 L 159.14407,149.61865 L 109.15834,149.61865 L 109.15834,96.855932 L 50.841654,96.855932 z "
       id="rect2196" />
  </g>
</svg>
